images/coindesk.svg

<svg width="95" height="18" viewBox="0 0 95 18" fill="none" xmlns="http://www.w3.org/2000/svg">
<g clip-path="url(#clip0_300_2070)">
<path d="M26.6931 12.2834C24.9443 12.2834 23.8606 10.7767 23.8606 8.69197C23.8606 6.62792 24.7726 5.09018 26.6823 5.09018C27.9375 5.09018 28.7637 5.86421 28.9141 6.88591H31.8323C31.682 5.61651 31.0919 4.50194 30.062 3.75887C29.2251 3.13964 28.0664 2.75781 26.6931 2.75781C23.1739 2.75781 20.8887 5.31723 20.8887 8.69197C20.8887 12.0873 23.2491 14.5745 26.7146 14.5745C28.3774 14.5745 29.5898 14.1308 30.4911 13.2845C31.2957 12.5415 31.8323 11.5094 31.9073 10.3845H28.989C28.8604 11.4888 28.002 12.2834 26.6931 12.2834Z" fill="#BFBCB8"/>
<path d="M37.2943 5.98828C34.5905 5.98828 32.7773 7.84594 32.7773 10.2918C32.7773 12.7378 34.5905 14.5954 37.2943 14.5954C40.0193 14.5954 41.8004 12.7378 41.8004 10.2918C41.8004 7.84594 40.0193 5.98828 37.2943 5.98828ZM37.2835 12.7481C36.114 12.7481 35.5024 11.7677 35.5024 10.2918C35.5024 8.81604 36.114 7.81498 37.2835 7.81498C38.453 7.81498 39.0859 8.81604 39.0859 10.2918C39.0753 11.7677 38.453 12.7481 37.2835 12.7481Z" fill="#BFBCB8"/>
<path d="M45.6176 5.12455C46.1916 4.5724 46.1916 3.6772 45.6176 3.12505C45.0434 2.5729 44.1129 2.5729 43.5389 3.12505C42.9649 3.6772 42.9649 4.5724 43.5389 5.12455C44.1129 5.6767 45.0434 5.6767 45.6176 5.12455Z" fill="#BFBCB8"/>
<path d="M42.2393 8.03373H43.3657V14.3394H46.0481V6.20703H42.2393V8.03373Z" fill="#BFBCB8"/>
<path d="M52.6467 5.96875C51.4774 5.96875 50.6618 6.44348 50.0397 7.3207H49.9861V6.20612H47.4004V14.3282H50.0933V9.83885C50.0933 8.83779 50.6834 8.12569 51.5739 8.12569C52.4537 8.12569 52.8936 8.71393 52.8936 9.57054V14.3282H55.5865V9.0442C55.5865 7.23815 54.4922 5.96875 52.6467 5.96875Z" fill="#BFBCB8"/>
<path d="M61.8941 2.98438H56.8623V14.3264H61.7118C63.1924 14.3264 64.3832 13.9652 65.3061 13.2943C66.6258 12.3243 67.3551 10.7246 67.3551 8.72246C67.3551 5.25483 65.1557 2.98438 61.8941 2.98438ZM61.4973 11.9734H59.7806V5.33741H61.5294C63.3641 5.33741 64.4048 6.66871 64.4048 8.73279C64.394 10.8072 63.407 11.9734 61.4973 11.9734Z" fill="#BFBCB8"/>
<path d="M75.3271 7.04263C74.5977 6.4131 73.6427 6.03125 72.4411 6.03125C69.866 6.03125 68.1064 7.88889 68.1064 10.3142C68.1064 12.7704 69.8231 14.6281 72.6128 14.6281C73.6856 14.6281 74.5438 14.3597 75.2521 13.885C75.9923 13.3896 76.4858 12.6981 76.6683 11.9654H74.0503C73.8144 12.4711 73.353 12.7704 72.6449 12.7704C71.5398 12.7704 70.9175 12.0893 70.7458 10.9953H76.8184C76.8292 9.33373 76.3357 7.93018 75.3271 7.04263ZM70.7565 9.44727C70.939 8.47715 71.4646 7.85795 72.484 7.85795C73.353 7.85795 73.9861 8.47715 74.0826 9.44727H70.7565Z" fill="#BFBCB8"/>
<path d="M82.1181 9.24979C81.0451 9.06402 80.0904 8.98145 80.0904 8.41383C80.0904 7.90814 80.6052 7.67076 81.2597 7.67076C82.0001 7.67076 82.5152 7.89781 82.6117 8.62024H85.0901C84.9612 7.02059 83.6739 6.01953 81.2812 6.01953C79.2856 6.01953 77.6333 6.90708 77.6333 8.62024C77.6333 10.5295 79.1999 10.901 80.6697 11.1384C81.7963 11.3242 82.8154 11.4067 82.8154 12.1395C82.8154 12.6658 82.3006 12.9444 81.4958 12.9444C80.6052 12.9444 80.0473 12.5523 79.94 11.737H77.3975C77.4832 13.5327 79.0282 14.6266 81.5066 14.6266C83.7168 14.6266 85.3475 13.7082 85.3475 11.9331C85.3583 9.85867 83.6095 9.48714 82.1181 9.24979Z" fill="#BFBCB8"/>
<path d="M91.679 9.25912L94.651 6.20431H91.5502L89.0397 8.94952V2.98438H86.3896V14.3367H89.0397V11.8392L89.8551 11.0136L91.8828 14.3367H94.9944L91.679 9.25912Z" fill="#BFBCB8"/>
<path d="M9.06541 9.44759C9.51576 9.44759 9.88081 9.09642 9.88081 8.66323C9.88081 8.23005 9.51576 7.87891 9.06541 7.87891C8.61508 7.87891 8.25 8.23005 8.25 8.66323C8.25 9.09642 8.61508 9.44759 9.06541 9.44759Z" fill="#BFBCB8"/>
<path d="M15.5664 9.44759C16.0167 9.44759 16.3818 9.09642 16.3818 8.66323C16.3818 8.23005 16.0167 7.87891 15.5664 7.87891C15.116 7.87891 14.751 8.23005 14.751 8.66323C14.751 9.09642 15.116 9.44759 15.5664 9.44759Z" fill="#BFBCB8"/>
<path d="M15.5664 15.7093C16.0167 15.7093 16.3818 15.3581 16.3818 14.925C16.3818 14.4918 16.0167 14.1406 15.5664 14.1406C15.116 14.1406 14.751 14.4918 14.751 14.925C14.751 15.3581 15.116 15.7093 15.5664 15.7093Z" fill="#BFBCB8"/>
<path d="M17.9592 2.2529C17.8734 1.10734 16.9185 0.178519 15.7276 0.0959564C14.9658 0.0443548 14.2791 0.323002 13.7964 0.797737C13.4316 1.15895 12.938 1.37567 12.4123 1.37567H12.2192C11.6827 1.37567 11.1785 1.15895 10.803 0.787416C10.3631 0.353963 9.75151 0.0959564 9.07559 0.0959564C8.39965 0.0959564 7.78809 0.364284 7.34821 0.787416C6.97269 1.15895 6.46844 1.37567 5.93198 1.37567H5.74958C5.22388 1.37567 4.7196 1.17959 4.35481 0.818378C4.27971 0.746136 4.2046 0.673894 4.1295 0.611971C3.21755 -0.100129 1.87641 -0.0794888 0.99663 0.673894C-0.0655439 1.57176 -0.10846 3.14045 0.87861 4.0899C0.88934 4.10022 0.900068 4.11054 0.910798 4.12086C1.29704 4.47175 1.50089 4.96715 1.50089 5.47284V5.64828C1.50089 6.16429 1.27558 6.64934 0.889338 7.01055C0.43872 7.43369 0.170495 8.02193 0.170495 8.67213C0.170495 9.3223 0.44945 9.91056 0.889338 10.3337C1.27558 10.6949 1.50089 11.18 1.50089 11.696V11.9333C1.50089 12.439 1.27558 12.9138 0.900068 13.2647C0.427992 13.7084 0.138308 14.338 0.170495 15.0294C0.22414 16.2472 1.25412 17.2277 2.50942 17.2689C3.239 17.2896 3.89347 17.0109 4.35481 16.5465C4.7196 16.1853 5.21312 15.9583 5.73885 15.9583H5.94271C6.46844 15.9583 6.96196 16.175 7.32675 16.5465C7.80955 17.0316 8.50695 17.3102 9.26871 17.2586C10.4596 17.176 11.4252 16.2472 11.5111 15.0914C11.6076 13.7188 10.4918 12.5835 9.08632 12.5835C8.4211 12.5835 7.80955 12.8415 7.36966 13.2647C6.99414 13.6259 6.48989 13.8426 5.96416 13.8426H5.73885C5.21312 13.8426 4.69814 13.6465 4.32262 13.275C4.3119 13.2647 4.3119 13.2647 4.30117 13.2543C3.91492 12.8931 3.68962 12.4081 3.68962 11.8921V11.6857C3.68962 11.1696 3.91492 10.6846 4.30117 10.3234C4.75178 9.90024 5.02002 9.31198 5.02002 8.66181C5.02002 8.01164 4.74105 7.42337 4.30117 7.00023C3.91492 6.63902 3.68962 6.15397 3.68962 5.63796V5.45219C3.68962 4.93618 3.91492 4.45111 4.29044 4.0899C4.30117 4.0796 4.30117 4.0796 4.3119 4.06928C4.32262 4.05896 4.32262 4.05896 4.33335 4.04864C4.70887 3.68743 5.21312 3.47069 5.74958 3.47069H5.94271C6.47917 3.47069 6.98342 3.68743 7.35894 4.05896C7.79882 4.4924 8.41038 4.75041 9.08632 4.75041C9.76224 4.75041 10.3738 4.48208 10.8137 4.05896C11.1892 3.68743 11.6935 3.47069 12.2299 3.47069H12.4016C12.938 3.47069 13.4423 3.68743 13.8178 4.05896C14.2577 4.4924 14.8692 4.75041 15.5452 4.75041C16.94 4.76074 18.0558 3.6255 17.9592 2.2529Z" fill="#BFBCB8"/>
</g>
<defs>
<clipPath id="clip0_300_2070">
<rect width="94.8256" height="17.241" fill="white" transform="translate(0.167969 0.0898438)"/>
</clipPath>
</defs>
</svg>

<svg xmlns="http://www.w3.org/2000/svg" width="95" height="18" fill="none"><g fill="#BFBCB8" clip-path="url(#a)"><path d="M26.693 12.283c-1.749 0-2.832-1.506-2.832-3.591 0-2.064.912-3.602 2.821-3.602 1.256 0 2.082.774 2.232 1.796h2.918c-.15-1.27-.74-2.384-1.77-3.127-.837-.62-1.996-1.001-3.369-1.001-3.52 0-5.804 2.56-5.804 5.934 0 3.395 2.36 5.883 5.826 5.883 1.662 0 2.875-.444 3.776-1.29.805-.744 1.341-1.776 1.416-2.9H28.99c-.129 1.104-.987 1.898-2.296 1.898M37.294 5.988c-2.703 0-4.517 1.858-4.517 4.304s1.813 4.303 4.517 4.303c2.725 0 4.506-1.857 4.506-4.303s-1.78-4.304-4.506-4.304m-.01 6.76c-1.17 0-1.782-.98-1.782-2.456s.612-2.477 1.781-2.477 1.803 1.001 1.803 2.477c-.01 1.476-.633 2.456-1.803 2.456M45.618 5.125a1.376 1.376 0 0 0 0-2 1.51 1.51 0 0 0-2.08 0 1.376 1.376 0 0 0 0 2 1.51 1.51 0 0 0 2.08 0M42.24 8.034h1.126v6.305h2.682V6.207H42.24zM52.647 5.969c-1.17 0-1.985.474-2.607 1.352h-.054V6.206H47.4v8.122h2.693v-4.49c0-1 .59-1.712 1.48-1.712.88 0 1.32.588 1.32 1.445v4.757h2.694V9.044c0-1.806-1.095-3.075-2.94-3.075M61.894 2.984h-5.032v11.342h4.85c1.48 0 2.671-.36 3.594-1.032 1.32-.97 2.05-2.57 2.05-4.572 0-3.467-2.2-5.738-5.462-5.738m-.397 8.99h-1.716V5.336h1.748c1.835 0 2.876 1.332 2.876 3.396-.011 2.074-.998 3.24-2.908 3.24M75.327 7.043c-.73-.63-1.684-1.012-2.886-1.012-2.575 0-4.335 1.858-4.335 4.283 0 2.456 1.717 4.314 4.507 4.314 1.073 0 1.93-.268 2.64-.743.74-.495 1.233-1.187 1.415-1.92H74.05c-.236.506-.697.805-1.405.805-1.105 0-1.727-.68-1.9-1.775h6.073c.011-1.661-.482-3.065-1.49-3.952m-4.57 2.404c.182-.97.708-1.589 1.727-1.589.869 0 1.502.62 1.599 1.59zM82.118 9.25c-1.073-.186-2.028-.269-2.028-.836 0-.506.515-.743 1.17-.743.74 0 1.255.227 1.352.95h2.478c-.129-1.6-1.416-2.601-3.809-2.601-1.995 0-3.648.887-3.648 2.6 0 1.91 1.567 2.281 3.037 2.518 1.126.186 2.145.269 2.145 1.002 0 .526-.514.804-1.32.804-.89 0-1.448-.392-1.555-1.207h-2.543c.086 1.796 1.631 2.89 4.11 2.89 2.21 0 3.84-.919 3.84-2.694.011-2.074-1.737-2.446-3.229-2.683M91.679 9.26l2.972-3.056h-3.1L89.04 8.95V2.984h-2.65v11.353h2.65v-2.498l.815-.825 2.028 3.323h3.111zM9.065 9.448c.45 0 .816-.352.816-.785s-.365-.784-.816-.784-.815.351-.815.784.365.785.815.785M15.566 9.448c.45 0 .816-.352.816-.785s-.365-.784-.816-.784-.815.351-.815.784.365.785.815.785M15.566 15.71c.45 0 .816-.352.816-.785s-.365-.784-.816-.784-.815.35-.815.784c0 .433.365.784.815.784"/><path d="M17.96 2.253C17.872 1.107 16.918.179 15.727.096a2.5 2.5 0 0 0-1.932.702 1.97 1.97 0 0 1-1.384.578h-.193c-.536 0-1.04-.217-1.416-.589A2.44 2.44 0 0 0 9.076.096a2.5 2.5 0 0 0-1.728.691c-.375.372-.88.589-1.416.589H5.75c-.526 0-1.03-.196-1.395-.558a4 4 0 0 0-.226-.206C3.219-.1 1.877-.079.998.674A2.284 2.284 0 0 0 .879 4.09l.032.03c.386.352.59.847.59 1.353v.175c0 .516-.225 1.001-.612 1.363A2.26 2.26 0 0 0 .17 8.672c0 .65.28 1.239.72 1.662.386.36.61.846.61 1.362v.237c0 .506-.224.98-.6 1.332a2.27 2.27 0 0 0-.73 1.764c.054 1.218 1.084 2.199 2.34 2.24.729.02 1.383-.258 1.845-.722a1.98 1.98 0 0 1 1.384-.589h.204c.525 0 1.019.217 1.384.589.483.485 1.18.763 1.942.712 1.19-.083 2.156-1.012 2.242-2.168.097-1.372-1.02-2.507-2.425-2.507-.665 0-1.276.258-1.716.68-.376.362-.88.579-1.406.579H5.74c-.526 0-1.04-.197-1.416-.568l-.022-.02a1.87 1.87 0 0 1-.611-1.363v-.206c0-.516.225-1.001.611-1.363.45-.423.719-1.011.719-1.661S4.741 7.423 4.301 7a1.87 1.87 0 0 1-.611-1.362v-.186c0-.516.225-1 .6-1.362l.022-.02.021-.021c.376-.362.88-.578 1.417-.578h.193c.536 0 1.04.216 1.416.588.44.433 1.051.691 1.727.691a2.5 2.5 0 0 0 1.728-.691c.375-.372.88-.588 1.416-.588h.172c.536 0 1.04.216 1.416.588.44.433 1.051.691 1.727.691 1.395.01 2.51-1.124 2.414-2.497"/></g><defs><clipPath id="a"><path fill="#fff" d="M.168.09h94.826v17.24H.168z"/></clipPath></defs></svg>
